src/svg/arrow-loop-outline.svg

<svg version="1.2" baseProfile="tiny" xmlns="http://www.w3.org/2000/svg" width="24" height="24" viewBox="0 0 24 24"><path d="M18.994 7.187l.006-.187c0-.801-.312-1.555-.879-2.121-.566-.567-1.32-.879-2.121-.879s-1.555.312-2.121.879l-2.883 2.883c-.531-.474-1.23-.762-1.996-.762h-1c-3.859 0-7 3.14-7 7s3.141 7 7 7h9c3.859 0 7-3.14 7-7 0-3.306-2.14-6.084-5.006-6.813zm-1.994 11.813h-9c-2.757 0-5-2.243-5-5s2.243-5 5-5h1c.553 0 1 .448 1 1s-.447 1-1 1h-1c-1.654 0-3 1.346-3 3s1.346 3 3 3h9c1.654 0 3-1.346 3-3s-1.121-3-2.5-3h-2.086l1.293 1.293c.391.391.391 1.023 0 1.414-.195.195-.451.293-.707.293s-.512-.098-.707-.293l-3.707-3.707 3.707-3.707c.195-.195.451-.293.707-.293s.512.098.707.293c.391.391.391 1.023 0 1.414l-1.293 1.293h2.086c2.481 0 4.5 2.243 4.5 5s-2.243 5-5 5zm.749-6.971c.7.164 1.251 1 1.251 1.971 0 1.103-.897 2-2 2h-9c-1.103 0-2-.897-2-2s.897-2 2-2h1c.856 0 1.588-.541 1.873-1.299l3.713 3.713c.378.378.88.586 1.414.586s1.036-.208 1.414-.586.586-.88.586-1.414c0-.345-.087-.677-.251-.971z"/></svg>

<?xml version="1.0" encoding="iso-8859-1"?>
<!-- Generator: Adobe Illustrator 16.2.1, SVG Export Plug-In . SVG Version: 6.00 Build 0)  -->
<svg version="1.2" baseProfile="tiny" xmlns="http://www.w3.org/2000/svg" xmlns:xlink="http://www.w3.org/1999/xlink" x="0px"
	 y="0px" width="24px" height="24px" viewBox="0 0 24 24" xml:space="preserve">
<g id="Layer_1">
	<g>
		<g>
			<path d="M18.994,7.187C18.998,7.125,19,7.062,19,7c0-0.801-0.312-1.555-0.879-2.121C17.555,4.312,16.801,4,16,4
				s-1.555,0.312-2.121,0.879l-2.883,2.883C10.465,7.288,9.766,7,9,7H8c-3.859,0-7,3.14-7,7s3.141,7,7,7h9c3.859,0,7-3.14,7-7
				C24,10.694,21.86,7.916,18.994,7.187z M17,19H8c-2.757,0-5-2.243-5-5s2.243-5,5-5h1c0.553,0,1,0.448,1,1s-0.447,1-1,1H8
				c-1.654,0-3,1.346-3,3s1.346,3,3,3h9c1.654,0,3-1.346,3-3s-1.121-3-2.5-3h-2.086l1.293,1.293c0.391,0.391,0.391,1.023,0,1.414
				C16.512,13.902,16.256,14,16,14s-0.512-0.098-0.707-0.293L11.586,10l3.707-3.707C15.488,6.098,15.744,6,16,6
				s0.512,0.098,0.707,0.293c0.391,0.391,0.391,1.023,0,1.414L15.414,9H17.5c2.481,0,4.5,2.243,4.5,5S19.757,19,17,19z
				 M17.749,12.029c0.7,0.164,1.251,1,1.251,1.971c0,1.103-0.897,2-2,2H8c-1.103,0-2-0.897-2-2s0.897-2,2-2h1
				c0.856,0,1.588-0.541,1.873-1.299c0.006,0.006,3.713,3.713,3.713,3.713C14.964,14.792,15.466,15,16,15s1.036-0.208,1.414-0.586
				S18,13.534,18,13C18,12.655,17.913,12.323,17.749,12.029z"/>
		</g>
	</g>
</g>
<g id="nyt_x5F_exporter_x5F_info" display="none">
</g>
</svg>
